X: 50
T: Huffman's Hornpipe v.2
P: piffero secondo a0081
O: Dan Moylan
%R: hornpipe, reel
F: http://ancients.sudburymuster.org/mus/sng/pdf/huffmansC0.pdf
Z: 2020 John Chambers <jc:trillian.mit.edu>
M: 4/4
L: 1/8
K: D	% actually G+D
z2 |\
B2G2 F2D2 | B2G2 F2D2 | G4 A2F2 | B2G2 F2D2 |\
B2G2 F2D2 | B2G2 F2D2 | G4 A2F2 | B2d2 B2  :|
z2 |:\
F2A2 d2f2 | c2e2 c2A2 | c2A2 d2A2 | c2A2 d2A2 |\
F2A2 e2g2 | d2f2 c2A2 | B2d2 F2A2 |1 G2A2 B2c2 :|2 A2G2 F2 |]


